X:1537
T:Little Katey Kearney
R:reel
N:"collected from F. O'Neill"
B:"O'Neill's Dance Music of Ireland, 1537"
T: caitilin beag ni cearnai.g.
Z:transcribed by John B. Walsh, walsh@math.ubc.ca 8/23/96
M:C|
L:1/8
K:A
(ed)|(c<A)AG (EA)AB|(cA)Ac (ef)ed|(c<A)AG EAAB|(dB)(GB) d2:|
(ed)|cBcd efed|cBcd (ea)a2|cBcd efge|dBGB d2 (ed)|
cBcd efed|cBcd eaab|c'abg afge|(dB)(GB) d2||


